img/meditations/rt.svg

<svg width="212" height="230" viewBox="0 0 212 230" fill="none" xmlns="http://www.w3.org/2000/svg">
<path d="M138.518 62.5703C138.518 62.1388 138.518 61.7073 138.518 61.7073C138.086 62.1388 138.518 62.5703 138.518 62.5703Z" fill="white"/>
<path d="M140.244 66.0225C141.107 66.8855 142.402 67.3171 143.265 67.3171C143.696 67.3171 144.559 67.3171 144.991 66.8855C146.285 66.8855 147.148 66.8855 148.443 67.3171C148.874 67.3171 149.306 67.3171 149.737 67.3171C150.169 67.3171 150.6 66.8855 150.6 66.8855C151.463 66.454 151.895 65.591 152.326 64.7279C152.326 64.2964 152.758 63.8649 152.758 63.8649C152.758 63.4334 152.758 63.0019 152.758 62.5703C152.758 61.7073 152.326 60.8443 151.463 60.4127C150.6 59.5497 149.737 59.1182 148.874 58.6867H148.443C148.011 58.2551 147.148 57.8236 146.717 57.3921C146.285 56.9606 145.422 56.9606 144.991 56.5291C144.128 56.5291 143.265 56.0975 142.833 56.0975C143.265 56.0975 143.265 56.0975 143.696 56.0975C143.265 56.0975 142.833 56.0975 141.97 56.0975C141.107 56.0975 140.244 56.5291 139.812 56.9606C139.381 57.8236 138.949 58.2551 138.949 59.1182C138.949 60.4127 138.949 61.2758 138.949 62.1388C138.518 63.8649 138.949 65.1595 140.244 66.0225Z" fill="white"/>
<path d="M81.1257 154.484C84.5779 156.642 90.1876 159.662 94.0713 156.642C94.5028 156.21 94.9344 155.347 94.0713 154.916C91.9137 152.326 88.4616 151.463 85.4409 149.306C82.8518 147.148 80.2627 144.559 78.1051 141.538C74.2214 135.929 71.6323 128.593 72.0638 121.689C72.9269 109.606 86.304 104.859 96.2289 108.311C102.27 110.037 106.585 114.353 108.311 120.825C109.606 125.572 116.079 124.278 116.51 119.962C120.826 115.647 125.572 111.764 132.045 110.901C137.655 110.037 143.696 112.195 147.58 116.079C156.21 125.141 156.21 139.812 150.169 150.169C148.443 153.189 146.285 155.779 143.696 157.505C140.675 159.662 137.223 160.094 134.203 161.82C133.34 162.251 133.771 163.546 134.634 163.977C141.538 166.998 149.306 160.525 153.621 155.347C157.936 149.737 160.094 141.97 160.525 135.066C160.957 123.415 154.916 111.332 144.991 106.585C145.422 105.722 145.422 104.428 145.422 103.565C145.422 102.702 145.422 101.839 145.422 100.544C145.422 98.3865 145.422 96.2289 145.422 94.5028C145.422 92.3452 145.422 90.6191 145.422 88.4615C145.422 88.03 145.422 88.03 145.422 87.5985V87.1669V86.7354V86.3039C145.422 85.4409 145.854 84.5778 146.285 83.7148C146.285 82.8517 146.285 81.9887 145.854 81.1257C152.326 80.6941 158.799 81.5572 164.841 78.5366V78.105C157.505 78.9681 150.169 79.8311 143.265 78.5366C135.929 76.8105 129.024 75.9474 121.689 75.0844C112.627 74.2213 103.565 74.2214 94.5028 73.7898C85.4409 73.3583 74.6529 71.6322 66.4541 74.6529C64.728 75.0844 64.728 77.242 66.4541 77.6735C70.7693 79.3996 75.9475 78.9681 80.2627 79.3996C85.4409 79.8311 90.6192 80.2626 95.3659 80.2626C104.428 80.6941 113.49 81.1257 122.552 81.5572C128.161 81.9887 133.771 81.5572 139.381 81.1257C138.518 82.8517 138.518 85.0093 138.086 87.1669C138.086 89.3245 138.086 91.0506 138.086 93.2082C138.086 95.3658 138.086 97.5234 138.518 99.2495C138.518 100.113 138.518 101.407 138.518 102.27C138.518 102.702 138.518 103.133 138.518 103.996C136.792 103.565 135.066 103.565 132.908 103.565C126.004 103.996 118.668 107.448 113.921 113.058C107.88 100.976 91.9137 95.3658 78.9681 100.113C71.6323 102.702 65.591 108.743 63.4334 116.942C61.2758 125.572 63.8649 135.066 68.6117 142.833C73.3584 148.011 76.8105 151.895 81.1257 154.484Z" fill="white"/>
<path d="M230 150.169C229.569 137.655 223.959 122.983 212.308 116.942C215.76 115.647 219.212 112.195 221.37 108.743C226.116 101.839 229.137 92.7767 228.705 84.1463C228.274 72.0638 222.664 61.2758 218.781 50.0563C215.328 38.8368 214.465 28.0488 220.507 17.6923C221.801 15.5347 219.644 12.9456 217.486 13.8086C210.582 15.5347 204.54 15.9662 197.205 14.2401C191.163 12.5141 185.554 9.92493 179.944 7.33581C170.45 3.02062 160.525 -0.863061 150.169 -2.14279e-05C136.792 0.431498 121.257 6.90429 116.079 18.9868C114.353 16.3977 111.764 14.2401 109.606 12.5141C102.702 7.76733 93.6398 4.7467 85.0094 5.17822C72.9269 5.60974 62.1389 11.2195 50.9194 15.1032C39.6999 18.5553 28.9119 19.4184 18.5554 13.3771C15.9663 12.0825 13.3772 13.8086 13.8087 16.3977C15.5348 23.302 15.9663 29.3433 14.2402 36.6792C12.5141 42.7204 9.92501 48.3302 7.33589 53.9399C3.02069 63.4334 -0.862984 73.3583 5.48512e-05 83.7148C0.863094 99.681 9.06197 117.805 25.8912 119.531C13.3772 127.298 7.33589 141.538 9.49349 157.073C10.788 166.998 15.9663 175.197 20.713 183.827C23.3021 188.143 25.8912 192.458 26.7543 197.204C27.1858 199.794 27.1858 201.951 27.6173 204.54C28.0488 207.992 28.4804 208.424 25.8912 211.876C24.5967 213.171 25.8912 215.328 27.6173 214.897C47.8987 211.445 63.0019 230.863 83.2833 229.568C97.955 228.705 115.216 221.37 118.668 205.835C126.435 219.212 141.107 226.548 157.505 223.959C167.43 222.664 175.629 217.486 184.259 212.739C188.574 210.15 192.889 207.561 197.636 206.698C200.225 206.266 202.383 206.266 204.972 205.835C208.424 205.403 208.856 204.972 212.308 207.561C213.602 208.856 215.76 207.561 215.328 205.835C211.445 185.553 230.863 170.45 230 150.169ZM8.19893 75.0844C9.92501 64.7279 15.9663 55.2345 19.85 45.7411C23.3021 37.1107 24.1652 28.0488 21.1445 19.4184C27.6173 20.7129 34.0901 22.8705 40.9944 22.8705C50.9194 22.8705 59.9813 19.4184 69.0432 16.3977C78.5366 13.3771 87.5985 11.651 97.092 15.5347C102.702 17.6923 107.017 20.7129 110.038 25.4596C99.2496 25.8912 88.0301 28.4803 78.1051 33.227C64.728 39.2683 53.94 50.4878 44.8781 62.1388C39.6999 69.0431 34.9531 76.8105 31.9325 85.0094C29.3434 91.9137 27.1858 100.113 29.3434 107.448C29.7749 108.743 31.9325 109.174 31.9325 107.448C32.7955 101.407 33.2271 95.7973 35.3847 90.1876C37.9738 83.2833 41.4259 77.242 45.7411 71.2007C53.5085 59.9812 63.865 49.6247 75.9475 42.2889C87.5985 35.3846 100.976 32.7955 114.353 32.7955C115.216 34.9531 118.236 34.9531 119.099 33.227C135.066 34.5216 150.6 39.6998 163.114 47.4671C170.882 52.2139 177.786 58.6867 182.964 65.591C185.985 69.4746 188.143 73.3583 190.3 77.6735C192.458 81.9887 195.478 85.8724 196.342 91.0506C196.342 91.4822 196.773 91.4822 196.773 91.0506C197.636 87.167 198.931 83.2833 198.931 79.3996C198.931 75.0844 196.342 70.3377 194.184 66.454C189.869 58.6867 183.827 51.7823 176.923 46.1726C163.114 34.9531 146.717 28.0488 129.024 25.4596C126.435 25.0281 123.415 24.5966 120.394 24.5966C125.141 10.3565 144.128 5.17821 158.368 7.76733C168.724 9.49341 178.218 15.5347 187.711 19.4184C196.342 22.8705 205.403 23.7336 214.034 20.7129C212.739 27.1857 210.582 33.6585 210.582 40.5628C210.582 50.4878 214.034 59.5497 217.054 68.6116C220.075 78.105 221.801 87.167 217.917 96.6604C215.328 103.565 211.445 109.174 204.109 111.332C204.109 111.332 204.109 111.332 203.677 111.332C203.677 107.448 202.814 103.996 200.657 100.544C199.794 99.681 198.499 100.113 198.931 101.407C200.225 107.017 199.362 112.627 198.499 118.236C198.068 121.257 197.636 123.846 196.773 126.867V127.298C194.184 132.908 193.752 139.381 190.732 144.991C187.28 151.895 182.964 157.936 177.786 163.977C166.567 176.06 151.032 184.259 135.066 188.574C102.702 197.204 66.8856 182.533 48.3303 154.484C44.0151 148.011 40.5629 141.107 37.9738 133.771C36.6792 129.887 35.3847 126.004 34.5216 122.12C35.3847 121.689 35.8162 121.257 36.6792 121.257C40.1314 119.962 37.5423 114.353 34.0901 115.216C33.6586 115.216 33.2271 115.647 32.7955 115.647C32.364 114.353 31.9325 113.058 30.6379 112.195C30.2064 111.764 29.7749 111.764 29.3434 112.195C30.638 112.627 30.2064 113.49 30.2064 113.921C12.0826 112.195 5.60981 90.6191 8.19893 75.0844ZM110.469 204.109C108.743 218.78 86.304 223.959 74.6529 221.801C66.4541 220.507 59.1182 215.76 51.3509 212.739C44.4466 210.15 37.9738 209.287 31.0695 210.582C31.501 210.15 31.9325 209.287 32.364 208.856C33.2271 207.129 34.5216 206.698 34.9531 204.972C36.2477 201.088 34.9531 195.91 33.6586 192.458C30.638 183.396 24.5967 176.06 20.2815 167.43C16.3978 159.231 15.1032 149.306 17.6924 140.244C19.85 133.771 24.1652 129.024 29.3434 125.141C29.7749 128.161 30.638 131.613 31.501 133.771C33.6586 141.538 36.2477 148.874 40.1314 155.779C48.3303 170.45 61.2758 182.101 75.9475 189.869C87.5985 195.91 100.544 199.362 113.49 199.794C112.195 200.657 110.901 201.951 110.469 204.109ZM204.972 198.499C201.088 197.204 195.91 198.499 192.458 199.794C183.396 202.814 176.06 208.856 167.43 213.171C159.231 217.054 149.306 218.349 140.244 215.76C132.045 213.171 126.867 207.561 122.983 200.225C144.991 198.931 166.567 189.869 182.101 173.902C188.574 167.43 194.615 159.662 198.931 151.463C202.383 144.559 207.561 134.203 203.246 126.867C203.246 126.435 202.814 126.435 202.814 126.435C202.814 125.141 203.246 124.278 203.246 122.983H203.677C218.349 124.709 223.527 147.148 221.37 158.799C220.075 166.998 215.328 174.334 212.308 182.101C209.719 189.006 208.856 195.478 210.15 202.383C209.719 201.951 208.856 201.52 208.424 201.088C207.129 200.225 206.698 199.362 204.972 198.499Z" fill="white"/>
</svg>

<svg width="212" height="230" fill="none" xmlns="http://www.w3.org/2000/svg"><path d="M138.518 62.57v-.863c-.432.432 0 .863 0 .863zm1.726 3.452c.863.863 2.158 1.295 3.021 1.295.431 0 1.294 0 1.726-.431 1.294 0 2.157 0 3.452.431h1.294c.432 0 .863-.431.863-.431.863-.432 1.295-1.295 1.726-2.158 0-.432.432-.863.432-.863V62.57c0-.863-.432-1.726-1.295-2.157-.863-.863-1.726-1.295-2.589-1.726h-.431c-.432-.432-1.295-.863-1.726-1.295-.432-.431-1.295-.431-1.726-.863-.863 0-1.726-.432-2.158-.432h.863-1.726c-.863 0-1.726.432-2.158.864-.431.863-.863 1.294-.863 2.157v3.02c-.431 1.727 0 3.021 1.295 3.884zm-59.118 88.462c3.452 2.158 9.062 5.178 12.945 2.158.432-.432.863-1.295 0-1.726-2.157-2.59-5.61-3.453-8.63-5.61-2.59-2.158-5.178-4.747-7.336-7.768-3.884-5.609-6.473-12.945-6.041-19.849.863-12.083 14.24-16.83 24.165-13.378 6.041 1.726 10.356 6.042 12.082 12.514 1.295 4.747 7.768 3.453 8.199-.863 4.316-4.315 9.062-8.198 15.535-9.061 5.61-.864 11.651 1.294 15.535 5.178 8.63 9.062 8.63 23.733 2.589 34.09-1.726 3.02-3.884 5.61-6.473 7.336-3.021 2.157-6.473 2.589-9.493 4.315-.863.431-.432 1.726.431 2.157 6.904 3.021 14.672-3.452 18.987-8.63 4.315-5.61 6.473-13.377 6.904-20.281.432-11.651-5.609-23.734-15.534-28.481.431-.863.431-2.157.431-3.02V86.304c0-.863.432-1.726.863-2.59 0-.862 0-1.725-.431-2.588 6.472-.432 12.945.431 18.987-2.59v-.431c-7.336.863-14.672 1.726-21.576.432-7.336-1.727-14.241-2.59-21.576-3.453-9.062-.863-18.124-.863-27.186-1.294-9.062-.432-19.85-2.158-28.049.863-1.726.431-1.726 2.589 0 3.02 4.315 1.727 9.494 1.295 13.809 1.727 5.178.431 10.356.863 15.103.863l27.186 1.294c5.609.432 11.219 0 16.829-.431-.863 1.726-.863 3.883-1.295 6.04v6.042c0 2.158 0 4.315.432 6.041v4.747c-1.726-.431-3.452-.431-5.61-.431-6.904.431-14.24 3.883-18.987 9.493-6.041-12.082-22.007-17.692-34.953-12.945-7.336 2.589-13.377 8.63-15.535 16.829-2.157 8.63.432 18.124 5.179 25.891 4.746 5.178 8.199 9.062 12.514 11.651z" fill="#fff"/><path d="M230 150.169c-.431-12.514-6.041-27.186-17.692-33.227 3.452-1.295 6.904-4.747 9.062-8.199 4.746-6.904 7.767-15.966 7.335-24.597-.431-12.082-6.041-22.87-9.924-34.09-3.453-11.22-4.316-22.007 1.726-32.364 1.294-2.157-.863-4.746-3.021-3.883-6.904 1.726-12.946 2.157-20.281.431-6.042-1.726-11.651-4.315-17.261-6.904C170.45 3.02 160.525-.864 150.169 0c-13.377.431-28.912 6.904-34.09 18.987-1.726-2.59-4.315-4.747-6.473-6.473-6.904-4.747-15.966-7.767-24.597-7.336-12.082.432-22.87 6.042-34.09 9.925-11.22 3.452-22.007 4.315-32.364-1.726-2.589-1.295-5.178.432-4.746 3.02 1.726 6.905 2.157 12.946.431 20.282-1.726 6.041-4.315 11.651-6.904 17.26C3.02 63.434-.863 73.36 0 83.716c.863 15.966 9.062 34.09 25.891 35.816-12.514 7.767-18.555 22.007-16.398 37.542 1.295 9.925 6.473 18.124 11.22 26.754 2.59 4.316 5.178 8.631 6.041 13.377.432 2.59.432 4.747.863 7.336.432 3.452.863 3.884-1.726 7.336-1.294 1.295 0 3.452 1.726 3.021 20.282-3.452 35.385 15.966 55.666 14.671 14.672-.863 31.933-8.198 35.385-23.733 7.767 13.377 22.439 20.713 38.837 18.124 9.925-1.295 18.124-6.473 26.754-11.22 4.315-2.589 8.63-5.178 13.377-6.041 2.589-.432 4.747-.432 7.336-.863 3.452-.432 3.884-.863 7.336 1.726 1.294 1.295 3.452 0 3.02-1.726-3.883-20.282 15.535-35.385 14.672-55.666zM8.199 75.084c1.726-10.356 7.767-19.85 11.651-29.343 3.452-8.63 4.315-17.692 1.294-26.323 6.473 1.295 12.946 3.453 19.85 3.453 9.925 0 18.987-3.453 28.05-6.473 9.493-3.02 18.555-4.747 28.048-.863 5.61 2.157 9.925 5.178 12.946 9.925-10.788.431-22.008 3.02-31.933 7.767-13.377 6.041-24.165 17.26-33.227 28.912-5.178 6.904-9.925 14.672-12.945 22.87-2.59 6.905-4.747 15.104-2.59 22.439.432 1.295 2.59 1.726 2.59 0 .862-6.041 1.294-11.65 3.452-17.26 2.589-6.905 6.04-12.946 10.356-18.987 7.767-11.22 18.124-21.576 30.207-28.912 11.65-6.904 25.028-9.494 38.405-9.494.863 2.158 3.883 2.158 4.746.432 15.967 1.295 31.501 6.473 44.015 14.24 7.768 4.747 14.672 11.22 19.85 18.124 3.021 3.884 5.179 7.767 7.336 12.083 2.158 4.315 5.178 8.198 6.042 13.377 0 .431.431.431.431 0 .863-3.884 2.158-7.768 2.158-11.651 0-4.316-2.589-9.062-4.747-12.946-4.315-7.767-10.357-14.672-17.261-20.281-13.809-11.22-30.206-18.124-47.899-20.713-2.589-.432-5.609-.863-8.63-.863 4.747-14.24 23.734-19.419 37.974-16.83 10.356 1.726 19.85 7.768 29.343 11.651 8.631 3.453 17.692 4.316 26.323 1.295-1.295 6.473-3.452 12.945-3.452 19.85 0 9.925 3.452 18.987 6.472 28.049 3.021 9.493 4.747 18.555.863 28.048-2.589 6.905-6.472 12.514-13.808 14.672h-.432c0-3.884-.863-7.336-3.02-10.788-.863-.863-2.158-.431-1.726.863 1.294 5.61.431 11.22-.432 16.829-.431 3.021-.863 5.61-1.726 8.631v.431c-2.589 5.61-3.021 12.083-6.041 17.693-3.452 6.904-7.768 12.945-12.946 18.986-11.219 12.083-26.754 20.282-42.72 24.597-32.364 8.63-68.18-6.041-86.736-34.09a92.993 92.993 0 01-10.356-20.713c-1.295-3.884-2.59-7.767-3.452-11.651.863-.431 1.294-.863 2.157-.863 3.452-1.295.863-6.904-2.589-6.041-.431 0-.863.431-1.295.431-.431-1.294-.863-2.589-2.157-3.452-.432-.431-.863-.431-1.295 0 1.295.432.863 1.295.863 1.726C12.083 112.195 5.61 90.619 8.2 75.084zm102.27 129.025c-1.726 14.671-24.165 19.85-35.816 17.692-8.199-1.294-15.535-6.041-23.302-9.062-6.904-2.589-13.377-3.452-20.281-2.157.431-.432.863-1.295 1.294-1.726.863-1.727 2.158-2.158 2.59-3.884 1.294-3.884 0-9.062-1.295-12.514-3.021-9.062-9.062-16.398-13.377-25.028-3.884-8.199-5.179-18.124-2.59-27.186 2.158-6.473 6.473-11.22 11.651-15.103.432 3.02 1.295 6.472 2.158 8.63 2.158 7.767 4.747 15.103 8.63 22.008 8.2 14.671 21.145 26.322 35.817 34.09 11.65 6.041 24.596 9.493 37.542 9.925-1.295.863-2.589 2.157-3.021 4.315zm94.503-5.61c-3.884-1.295-9.062 0-12.514 1.295-9.062 3.02-16.398 9.062-25.028 13.377-8.199 3.883-18.124 5.178-27.186 2.589-8.199-2.589-13.377-8.199-17.261-15.535 22.008-1.294 43.584-10.356 59.118-26.323 6.473-6.472 12.514-14.24 16.83-22.439 3.452-6.904 8.63-17.26 4.315-24.596 0-.432-.432-.432-.432-.432 0-1.294.432-2.157.432-3.452h.431c14.672 1.726 19.85 24.165 17.693 35.816-1.295 8.199-6.042 15.535-9.062 23.302-2.589 6.905-3.452 13.377-2.158 20.282-.431-.432-1.294-.863-1.726-1.295-1.295-.863-1.726-1.726-3.452-2.589z" fill="#fff"/></svg>
